src/assets/filled/HeartAdd.svg

<svg width="24" height="24" viewBox="0 0 24 24"  xmlns="http://www.w3.org/2000/svg">
<path d="M20.6799 13.9104V13.9004C19.7999 12.9704 18.5699 12.4004 17.1999 12.4004C14.5499 12.4004 12.3999 14.5504 12.3999 17.2004C12.3999 18.4304 12.8699 19.5504 13.6299 20.4004C14.5099 21.3804 15.7799 22.0004 17.1999 22.0004C19.8499 22.0004 21.9999 19.8504 21.9999 17.2004C21.9999 15.9304 21.4999 14.7704 20.6799 13.9104ZM18.9899 18.0104H17.9499V19.1004C17.9499 19.5104 17.6099 19.8504 17.1999 19.8504C16.7899 19.8504 16.4499 19.5104 16.4499 19.1004V18.0104H15.4099C14.9899 18.0104 14.6599 17.6804 14.6599 17.2604C14.6599 16.8504 14.9799 16.5204 15.3999 16.5104H16.4499V15.5104C16.4499 15.4904 16.4499 15.4704 16.4599 15.4504C16.4799 15.0704 16.8099 14.7604 17.1999 14.7604C17.5999 14.7604 17.9299 15.0804 17.9499 15.4804V16.5104H18.9899C19.4099 16.5104 19.7399 16.8504 19.7399 17.2604C19.7399 17.6804 19.4099 18.0104 18.9899 18.0104Z" />
<path d="M22 8.72965C22 9.91965 21.81 11.0196 21.48 12.0396C21.42 12.2496 21.17 12.3096 20.99 12.1796C19.9 11.3696 18.57 10.9396 17.2 10.9396C13.73 10.9396 10.9 13.7696 10.9 17.2396C10.9 18.3196 11.18 19.3796 11.71 20.3196C11.87 20.5996 11.68 20.9597 11.38 20.8496C8.97 20.0296 4.1 17.0396 2.52 12.0396C2.19 11.0196 2 9.91965 2 8.72965C2 5.63965 4.49 3.13965 7.56 3.13965C9.37 3.13965 10.99 4.01965 12 5.36965C13.01 4.01965 14.63 3.13965 16.44 3.13965C19.51 3.13965 22 5.63965 22 8.72965Z" />
</svg>

<?xml version="1.0" encoding="UTF-8"?>
<svg width="24" height="24" viewBox="0 0 24 24" xmlns="http://www.w3.org/2000/svg">
 <path d="m20.68 13.91v-0.01c-0.88-0.93-2.11-1.5-3.48-1.5-2.65 0-4.8 2.15-4.8 4.8 0 1.23 0.47 2.35 1.23 3.2 0.88 0.98 2.15 1.6 3.57 1.6 2.65 0 4.8-2.15 4.8-4.8 0-1.27-0.5-2.43-1.32-3.29zm-1.69 4.1h-1.04v1.09c0 0.41-0.34 0.75-0.75 0.75s-0.75-0.34-0.75-0.75v-1.09h-1.04c-0.42 0-0.75-0.33-0.75-0.75 0-0.41 0.32-0.74 0.74-0.75h1.05v-1c0-0.02 0-0.04 0.01-0.06 0.02-0.38 0.35-0.69 0.74-0.69 0.4 0 0.73 0.32 0.75 0.72v1.03h1.04c0.42 0 0.75 0.34 0.75 0.75 0 0.42-0.33 0.75-0.75 0.75z"/>
 <path d="m22 8.7296c0 1.19-0.19 2.29-0.52 3.31-0.06 0.21-0.31 0.27-0.49 0.14-1.09-0.81-2.42-1.24-3.79-1.24-3.47 0-6.3 2.83-6.3 6.3 0 1.08 0.28 2.14 0.81 3.08 0.16 0.28-0.03 0.6401-0.33 0.53-2.41-0.82-7.28-3.81-8.86-8.81-0.33-1.02-0.52-2.12-0.52-3.31 0-3.09 2.49-5.59 5.56-5.59 1.81 0 3.43 0.88 4.44 2.23 1.01-1.35 2.63-2.23 4.44-2.23 3.07 0 5.56 2.5 5.56 5.59z"/>
</svg>
